X: 21536
T: Kilcummin Lass, The
R: polka
M: 2/4
K: Dmajor
AB (3cBA|eA (3cBA|AB (3cBA|f2 fe|
AB (3cBA|eA (3cBA|AB (3cBA|d2 d2:|
f2 fe|f2 fe|AB (3cBA|g2 gf|
f2 fe|f2 fe|AB (3cBA|d2 d2:|

